!!!!SEGMENT: pl-wnifc--13846--092_anonim--piesni-polskie-i-ruskie-ludu-galicyjskiego-92-ach-ona-widze-nie-ublagana.krn
!!!cenid: 18xx:3314
!!!COM: Anonim
!!!COM-rismID: pe30004985
!!!CDT:
!!!CNT:
!!!GTL: Pieśni polskie i ruskie ludu galicyjskiego
!!!OTL: 92. Ach ona widzę nie ubłagana!
!!!OMV: 092
!!!PDT: 1833
!!!AGN:
!!!SMS-siglum: PL-Wnifc
!!!SMS-shelfmark: 13846
!!!SMS-shelfwork: 001-092 G
!!!SMS-variant:
!!!SMS-altvar:
!!!NIFC-rismSourceID: 1001036701
!!!NIFC-rismChildID: 1001039017
!!!NIFC-islandoraID: nifc:210326
!!!URL-pdf-islandora: https://repozytorium.nifc.pl/islandora/object/nifc%3A210326/datastream/PDF/view
!!!URL-scan:
!!!ONB-nifc:
!!!OMD: Andante
!!!AIN: 1 piano
!!!key: g
**kern	**kern	**dynam	**kern	**text
*part2	*part2	*part2	*part1	*part1
*group2	*group2	*	*group1	*group1
*staff3	*staff2	*	*staff1	*staff1
*I"[FORTEPIAN.]	*I"[FORTEPIAN.]	*	*I"[GŁOS.]	*
*Ipiano	*Ipiano	*Ivox	*	*
*ICklav	*ICklav	*ICvox	*	*
*IGacmp	*IGacmp	*IGsolo	*	*
*clefF4	*clefG2	*	*clefG2	*
*k[b-e-]	*k[b-e-]	*	*k[b-e-]	*
*g:	*g:	*	*g:	*
*M2/4	*M2/4	*	*M2/4	*
=1-	=1-	=1-	=1-	=1-
!LO:TX:t=P:problem:mixed beam	!	!	!LO:TX:a:B:t=E.72.	!
8GG/L 8GGG/	8g/^L	.	8g/	Ach
8d\ 8B-\	16b-`\L	.	16b-/	o-
.	16dd`\JJ	.	16dd/	-na
8B-\ 8G\	(16cc\LL	>	(16cc\LL	wi-
.	16b-\	.	16b-\	.
8e-\J 8B-\	16a\)	]	16a/JJ)	.
.	16g`\JJ	.	16g/	-dz&#281;
=2	=2	=2	=2	=2
!LO:TX:t=P:problem:mixed beam	!LO:N:vis=8.	!	!	!
8D/L 8GG/	(16.b-\^LL	.	(16.b-\LL	nie-
!	!LO:N:vis=16	!	!	!
.	32g/K)	.	32g/JJk)	.
!	!LO:N:vis=8.	!	!	!
8d\J 8B-\ 8G\	16.dd\^	.	16.dd\	-u-
!	!LO:N:vis=16	!	!	!
.	32b-`\JJk	.	32b-\	-b&#322;a-
8F#X\L 8D\	(16.a/LL	.	(16.a/LL	-ga-
.	32f#/JK)	.	32f#X/JJk)	.
8A\J 8D\	8d`/J	.	8d/	-na!
!!linebreak:original
=3	=3	=3	=3	=3
*^	*	*	*	*
!LO:TX:t=P:problem:mixed beam	!	!	!	!	!
8GG/L	4ryy	8g/^L	.	8g/	i
8d\J 8B-\ 8G\	.	16b-`\L	.	16b-/	o-
.	.	16dd`\JJ	.	16dd\/	-kiem
8D/L	8D\L	(16cc\LL	.	(16cc/LL	rzu-
.	.	16b-\	.	16b-/	.
8c/J 8A/	8A\J	16a\)	.	16a/JJ)	.
.	.	16f#X`/JJ	.	16f#X/	-ci&#263;
*v	*v	*	*	*	*
=4	=4	=4	=4	=4
*	*^	*	*	*
8B-\L 8G\	(16g/LL	8ryy	.	(16g/LL	nie
.	16a/)	.	.	16a/	.
8G\J 8E-\^	(<16b-/	(8g\	.	16b-\JJ)	.
.	16cc/JJ)	.	.	16cc\	ra-
8A\ 8D\^	8dd/ 8f#X/)	8f#\	.	8dd\	-czy!
8r	8r	8ryy	.	8r	.
*	*v	*v	*	*	*
!!linebreak:original
==5	==5	==5	==5	==5
*^	*	*	*	*
!LO:N:vis=2	!	!	!LO:DY:rj	!	!
(<8BB-/L	2BB-\^	(16dd\LL 16b-\	mf	(16dd\LL	ta
.	.	16cc/ 16a/)	.	16cc\JJ)	.
8B-`</	.	16dd\ 16b-\	.	16dd\	sro-
.	.	16ee-\JJ 16cc\	.	16ee-\	-ga
8B-`</	.	8.ff\L 8.dd\	.	8.ff\	na
8B-`</J)	.	.	.	.	.
.	.	16gg\Jk 16ee-\	.	16gg\	jej
*v	*v	*	*	*	*
=6	=6	=6	=6	=6
8FF/L	(16.ff\LL 16.dd\^<	.	(16.ff\LL	twa-
.	32ee-\K 32cc\)	.	32ee-\JJk)	.
8F/J	16dd\ 16b-`\	.	16dd\	-rzy
.	16ee-\JJ 16cc`\	.	16ee-\	od-
*^	*	*	*	*
8F/L 8FF/	8FF\L	8cc\ 8a\	.	8cc\	-mia-
8A/J 8AA/	8AA\J	(16ff\LL 16f\	.	(16ff\LL	-na
.	.	16ee-\JJ)	.	16ee-\JJ)	.
!!linebreak:original
=7	=7	=7	=7	=7	=7
*	*	*^	*	*	*
8B-\L 8BB-\^	4ryy	(<16dd/LL	8f\L	.	(16dd\LL	wy-
.	.	16ee-/)	.	.	16ee-\JJ)	.
8A\J 8AA\^	.	(<16cc/	8f#X\J	.	16cc\	-rok
.	.	16dd/JJ)	.	.	16dd\	mi
8G/L	8GG\^L	16b-/LL	8d\L	.	(16b-\LL	da-
.	.	16a/	.	.	16a/	.
(<16B-/L	8D\^J	16g/	16d\L	.	16g/JJ)	.
16A/JJ)	.	16f#X/JJ	16c\JJ	.	16f#X/	-je
=8	=8	=8	=8	=8	=8	=8
8G/L	8E-\L	(<16g/LL	8B-\L	.	(16g/LL	roz-
.	.	16a/)	.	.	16a/	.
8G/J	8E-\J	(<16b-/	8g\J	.	16b-\JJ)	.
.	.	16cc/JJ)	.	.	16cc\	-pa-
8A/ 8D/	8D\	8dd/	8f#X\	.	8dd\	-czy
8r	8ryy	8r	8ryy	.	8r	.
*v	*v	*	*	*	*	*
*	*v	*v	*	*	*
==	==	==	==	==
*-	*-	*-	*-	*-
!!!system-decoration: g1{(g2)}
!!!RDF**kern: > = above
!!!RDF**kern: < = below
!!!RDF**kern: | = vertical stroke
!!!ENC: Katarzyna Serwa
!!!END: 2021-11-11
!!!YEC: Copyright 2022 Narodowy Instytut Fryderyka Chopina (https://polishscores.org)
!!!YEM: License CC-BY-4.0 (https://creativecommons.org/licenses/by/4.0)
